_site/assets/img/smalltabs-logo__header.svg

<?xml version="1.0" encoding="UTF-8" standalone="no"?>
<svg width="154px" height="40px" viewBox="0 0 154 40" version="1.1" xmlns="http://www.w3.org/2000/svg" xmlns:xlink="http://www.w3.org/1999/xlink" xmlns:sketch="http://www.bohemiancoding.com/sketch/ns">
    <title>Artboard 1</title>
    <description>Created with Sketch (http://www.bohemiancoding.com/sketch)</description>
    <defs></defs>
    <g id="Page-1" stroke="none" stroke-width="1" fill="none" fill-rule="evenodd" sketch:type="MSPage">
        <g id="Artboard-1" sketch:type="MSArtboardGroup" transform="translate(-526.000000, -125.000000)" fill="#E35125">
            <path d="M570.494637,130.4968 L566.695933,159.052 L571.78443,159.052 L572.32171,154.5904 L574.902098,154.5904 L575.260285,159.052 L581.208109,159.052 L577.337927,130.4968 L570.494637,130.4968 L570.494637,130.4968 Z M572.787513,149.5216 L573.862876,140.1344 L574.579249,149.5216 L572.787513,149.5216 L572.787513,149.5216 Z M553.826917,143.5256 L551.712332,130.4968 L542.969689,130.4968 L542.969689,159.052 L548.12886,159.052 L548.12886,140.848 L551.354145,159.052 L555.11671,159.052 L558.699378,140.884 L558.699378,159.052 L564.432772,159.052 L564.432772,130.4968 L556.084456,130.4968 L553.826917,143.5256 L553.826917,143.5256 Z M532.020104,136.672 C532.020104,135.6728 532.772617,135.0296 533.52513,135.0296 C534.277642,135.0296 534.851062,135.6728 534.851062,136.672 L534.851062,139.5632 L540.260803,139.5632 L540.260803,135.744 C540.260803,132.8528 537.323031,130.14 533.52513,130.14 C528.902435,130.14 526.32285,133.2096 526.32285,137.1 C526.32285,140.3488 528.078446,143.3472 530.658031,145.9168 C533.16614,148.3792 534.707306,150.3072 534.707306,152.6624 C534.707306,153.912 534.205363,154.5192 533.130803,154.5192 C532.020104,154.5192 531.375207,153.7336 531.375207,152.6624 L531.375207,149.9856 L526,149.9856 L526,153.8048 C526,156.696 529.010052,159.4088 533.381373,159.4088 C537.788834,159.4088 540.40456,156.0896 540.40456,152.4488 C540.40456,148.3792 537.788834,145.5592 535.495959,142.8832 C532.629663,139.5272 532.020104,138.8136 532.020104,136.672 L532.020104,136.672 Z M589.387772,130.4968 L583.619041,130.4968 L583.619041,159.052 L594.905933,159.052 L594.905933,153.9832 L589.387772,153.9832 L589.387772,130.4968 L589.387772,130.4968 Z M603.120933,130.4968 L597.352202,130.4968 L597.352202,159.052 L608.639896,159.052 L608.639896,153.9832 L603.120933,153.9832 L603.120933,130.4968 L603.120933,130.4968 Z M674.706036,142.8832 C671.839741,139.5272 671.230181,138.8136 671.230181,136.672 C671.230181,135.6728 671.982694,135.0296 672.735207,135.0296 C673.48772,135.0296 674.06114,135.6728 674.06114,136.672 L674.06114,139.5632 L679.471684,139.5632 L679.471684,135.744 C679.471684,132.8528 676.533912,130.14 672.735207,130.14 C668.113316,130.14 665.532927,133.2096 665.532927,137.1 C665.532927,140.3488 667.288523,143.3472 669.868912,145.9168 C672.377021,148.3792 673.917383,150.3072 673.917383,152.6624 C673.917383,153.912 673.416244,154.5192 672.340881,154.5192 C671.230181,154.5192 670.585285,153.7336 670.585285,152.6624 L670.585285,149.9856 L665.210078,149.9856 L665.210078,153.8048 C665.210078,156.696 668.220933,159.4088 672.592254,159.4088 C676.999715,159.4088 679.61544,156.0896 679.61544,152.4488 C679.61544,148.3792 676.999715,145.5592 674.706036,142.8832 L674.706036,142.8832 Z M657.056114,130.4968 L650.032927,130.4968 L650.032927,159.052 L657.056114,159.052 C659.814793,159.052 662.932461,157.4816 662.932461,153.8408 L662.932461,147.6656 C662.932461,146.3096 662.215285,145.2744 660.710259,144.5248 C662.215285,143.7752 662.932461,142.704 662.932461,141.384 L662.932461,135.708 C662.932461,132.0672 659.814793,130.4968 657.056114,130.4968 L657.056114,130.4968 Z M657.557254,152.8768 C657.557254,153.6976 657.199067,154.0192 656.590311,154.0192 L655.766321,154.0192 L655.766321,147.1296 L656.590311,147.1296 C657.199067,147.1296 657.557254,147.452 657.557254,148.272 L657.557254,152.8768 L657.557254,152.8768 Z M657.557254,140.9552 C657.557254,141.7408 657.199067,142.0616 656.590311,142.0616 L655.766321,142.0616 L655.766321,135.5656 L656.590311,135.5656 C657.199067,135.5656 657.557254,135.8872 657.557254,136.708 L657.557254,140.9552 L657.557254,140.9552 Z M636.908523,130.4968 L633.110622,159.052 L638.198316,159.052 L638.736399,154.5904 L641.315984,154.5904 L641.674171,159.052 L647.622798,159.052 L643.752617,130.4968 L636.908523,130.4968 L636.908523,130.4968 Z M639.202202,149.5216 L640.276762,140.1344 L640.993135,149.5216 L639.202202,149.5216 L639.202202,149.5216 Z M610.927953,125 C610.927953,125 609.733731,133.5856 610.480622,139.536 C611.22671,145.4888 613.542073,148.1656 612.496425,158.58 C612.122979,162.8208 611.973601,163.9728 616.528834,164.308 L620.188601,164.308 L620.801373,164.308 L624.46114,164.308 C629.016373,163.9728 628.867798,162.8208 628.493549,158.58 C627.448705,148.1656 629.763264,145.4888 630.510155,139.536 C631.257047,133.5856 630.061218,125 630.061218,125 L610.927953,125 L610.927953,125 Z M627.304145,135.176 L623.50785,135.176 L623.50785,159.284 L617.666839,159.284 L617.666839,135.176 L613.688238,135.176 L613.688238,130.1952 L627.304145,130.1952 L627.304145,135.176 L627.304145,135.176 Z" id="smalltabs-logo" sketch:type="MSShapeGroup"></path>
        </g>
    </g>
</svg>

<?xml version="1.0" encoding="utf-8"?>
<!-- Generator: Adobe Illustrator 16.0.0, SVG Export Plug-In . SVG Version: 6.00 Build 0)  -->
<!DOCTYPE svg PUBLIC "-//W3C//DTD SVG 1.1//EN" "http://www.w3.org/Graphics/SVG/1.1/DTD/svg11.dtd">
<svg version="1.1" id="Layer_1" xmlns:sketch="http://www.bohemiancoding.com/sketch/ns"
	 xmlns="http://www.w3.org/2000/svg" xmlns:xlink="http://www.w3.org/1999/xlink" x="0px" y="0px" width="154px" height="40px"
	 viewBox="0 0 154 40" enable-background="new 0 0 154 40" xml:space="preserve">
<title>Artboard 1</title>
<description>Created with Sketch (http://www.bohemiancoding.com/sketch)</description>
<g id="Page-1" sketch:type="MSPage">
	<g id="Artboard-1" transform="translate(-526.000000, -125.000000)" sketch:type="MSArtboardGroup">
		<path id="smalltabs-logo" sketch:type="MSShapeGroup" fill="#FFFFFF" d="M570.495,130.497l-3.799,28.555h5.088l0.538-4.462h2.581
			l0.358,4.462h5.948l-3.87-28.555H570.495L570.495,130.497z M572.788,149.521l1.075-9.387l0.716,9.387H572.788L572.788,149.521z
			 M553.827,143.525l-2.115-13.028h-8.743v28.555h5.159v-18.204l3.225,18.204h3.763l3.583-18.168v18.168h5.733v-28.555h-8.348
			L553.827,143.525L553.827,143.525z M532.02,136.672c0-0.999,0.752-1.642,1.505-1.642c0.752,0,1.326,0.643,1.326,1.642v2.892h5.41
			v-3.819c0-2.892-2.938-5.604-6.735-5.604c-4.623,0-7.203,3.069-7.203,6.96c0,3.249,1.756,6.247,4.335,8.817
			c2.508,2.462,4.049,4.39,4.049,6.745c0,1.25-0.502,1.857-1.577,1.857c-1.111,0-1.756-0.786-1.756-1.857v-2.677H526v3.819
			c0,2.891,3.01,5.604,7.381,5.604c4.408,0,7.023-3.318,7.023-6.959c0-4.07-2.615-6.891-4.908-9.566
			C532.63,139.527,532.02,138.813,532.02,136.672L532.02,136.672z M589.388,130.497h-5.769v28.555h11.287v-5.068h-5.518V130.497
			L589.388,130.497z M603.121,130.497h-5.769v28.555h11.288v-5.068h-5.519V130.497L603.121,130.497z"/>
	</g>
</g>
<g id="Page-1_1_" sketch:type="MSPage">
	<g id="Artboard-1_1_" transform="translate(-526.000000, -125.000000)" sketch:type="MSArtboardGroup">
		<path id="smalltabs-logo_1_" sketch:type="MSShapeGroup" fill="#FDBB11" d="M674.706,142.883c-2.866-3.356-3.476-4.07-3.476-6.211
			c0-0.999,0.752-1.642,1.505-1.642s1.325,0.643,1.325,1.642v2.892h5.411v-3.819c0-2.892-2.938-5.604-6.736-5.604
			c-4.622,0-7.202,3.069-7.202,6.96c0,3.249,1.756,6.247,4.336,8.817c2.508,2.462,4.049,4.39,4.049,6.745
			c0,1.25-0.502,1.857-1.577,1.857c-1.11,0-1.755-0.786-1.755-1.857v-2.677h-5.376v3.819c0,2.891,3.011,5.604,7.382,5.604
			c4.408,0,7.023-3.318,7.023-6.959C679.615,148.379,677,145.559,674.706,142.883L674.706,142.883z M657.057,130.497h-7.023v28.555
			h7.023c2.758,0,5.876-1.57,5.876-5.211v-6.175c0-1.356-0.718-2.392-2.222-3.141c1.504-0.75,2.222-1.821,2.222-3.141v-5.676
			C662.933,132.067,659.814,130.497,657.057,130.497L657.057,130.497z M657.557,152.877c0,0.82-0.357,1.143-0.967,1.143h-0.824
			v-6.891h0.824c0.609,0,0.967,0.323,0.967,1.143V152.877L657.557,152.877z M657.557,140.955c0,0.786-0.357,1.106-0.967,1.106
			h-0.824v-6.496h0.824c0.609,0,0.967,0.322,0.967,1.143V140.955L657.557,140.955z M636.908,130.497l-3.798,28.555h5.088
			l0.538-4.462h2.58l0.357,4.462h5.949l-3.871-28.555H636.908L636.908,130.497z M639.202,149.521l1.075-9.387l0.716,9.387H639.202
			L639.202,149.521z M610.928,125c0,0-1.193,8.585-0.447,14.536c0.746,5.953,3.062,8.63,2.016,19.044
			c-0.373,4.24-0.522,5.393,4.033,5.729h3.659h0.612h3.66c4.556-0.336,4.406-1.488,4.033-5.729
			c-1.045-10.414,1.27-13.091,2.016-19.044c0.747-5.951-0.449-14.536-0.449-14.536H610.928L610.928,125z M627.305,135.176h-3.797
			v24.108h-5.841v-24.108h-3.979v-4.98h13.616V135.176L627.305,135.176z"/>
	</g>
</g>
</svg>
